X:1
T:Title
%%score { 1 | 2 }
L:1/8
M:6/8
K:A
V:1 treble nm="Grand Piano"
V:2 bass 
V:1
 z3 z2[Q:1/4=90] [CE] | [CE][=C^D][^CE] [Ec]2 [EB] | [FA]>[EG][DF] [CE]2 [CE] | %3
 [CE][=C^D][^CE] [Dc]>[DB][DA] |[M:5/8] [EB]-[EB]- [EB]3 |[M:1/8] [DE] | %6
[M:3/4] [CE][=C^D] [^CE] [Ec]2 [EB] | [FA]>[EG] [DF] [CE]2 [CE] | EE EG- G/F/G | %9
[M:5/8] [CA]-[CA]- [CA]3 |[M:3/4] [Ec]3 [CE]3 | F>G A [CE]2 [CE] | [Ec]>[DB] [CA][^DA] [DG][DA] | %13
[M:5/8] [EB]-[EB]- [EB]3 |[M:3/4] [Ec]3 [CE]3 | [DF][FA] [FB] [^Ec]2 [=Ed] | [Ee]2 [Ec]B- B/A/B | %17
[M:5/8] [CA]-[CA]- [CA]3 |] %18
V:2
 z3 z2 [A,,A,] | [A,,A,][A,,A,][A,,A,] [A,,A,]2 [C,A,] | [D,A,]>[D,A,][D,A,] [A,,A,]2 [A,,A,] | %3
 [A,,A,][A,,A,][A,,A,] [B,,A,]>[B,,A,][B,,A,] |[M:5/8] [E,G,]-[E,G,]- [E,G,]3 |[M:1/8] [E,G,] | %6
[M:3/4] [A,,A,][A,,A,] [A,,A,] [A,,A,]2 [C,A,] | [D,A,]>[D,A,] [D,A,] [A,,A,]2 [A,,A,] | %8
 [E,G,D][E,G,D] [E,G,D][E,B,D]- [E,B,D]/[E,A,D]/[E,B,D] |[M:5/8] [A,,A,]-[A,,A,]- [A,,A,]3 | %10
[M:3/4] [A,,A,]3 [A,,A,]3 | [D,A,D]>[D,G,D] [D,F,D] [A,,A,]2 [A,,A,] | %12
 [A,,A,]>[A,,A,] [A,,A,][B,,A,] [B,,A,][B,,A,] |[M:5/8] [E,G,]-[E,G,]- [E,G,]3 | %14
[M:3/4] [A,,A,]3 [A,,A,]3 | [D,A,][D,A,] [D,F,] [C,G,]2 [B,,G,] | %16
 [C,A,]2 [C,A,][E,G,D]- [E,G,D]/[E,A,C]/[E,G,D] |[M:5/8] [A,,A,]-[A,,A,]- [A,,A,]3 |] %18

